!!!!SEGMENT: pl-sa--29-a-i-29--003_konigsperger-marianus-vesperae-ex-d-laudate-pueri.krn
!!!id: 17xx:540
!!!COM: Königsperger, Marianus
!!!OTL: Vesperae ex D – Laudate pueri
!!!PDT:
!!!SMS-siglum: PL-SA
!!!SMS-shelfmark: 29/A I 29
!!!SMS-variant:
!!!SMS-altvar:
!!!NIFC-rismID: 1001068253
!!!system-decoration: [(s1,s2)][(s3,s4)][(s5,s6)]s7
**kern	**fba	**kern	**kern	**kern	**text	**kern	**text	**kern	**kern
*part7	*part7	*part6	*part5	*part4	*part4	*part3	*part3	*part2	*part1
*staff7	*staff7	*staff6	*staff5	*staff4	*staff4	*staff3	*staff3	*staff2	*staff1
*I"Organo	*	*I"Violino Secundo	*I"Violino Primo	*I"Baſso.	*	*I"Canto	*	*I"Clarino 2do Ex D.	*I"Clarino 1mo Ex D.
*I'org	*	*I'vl 2	*I'vl 1	*I'B	*	*I'S	*	*I'clno 2 in D	*I'clno 1 in D
*clefF4	*	*clefG2	*clefG2	*clefF4	*	*clefC1	*	*clefG2	*clefG2
*	*	*	*	*	*	*	*	*ITrd-1c-2	*ITrd-1c-2
*k[f#c#]	*	*k[f#c#]	*k[f#c#]	*k[f#c#]	*	*k[f#c#]	*	*k[f#c#]	*k[f#c#]
*M6/8	*	*M6/8	*M6/8	*M6/8	*	*M6/8	*	*M6/8	*M6/8
=1	=1	=1	=1	=1	=1	=1	=1	=1	=1
!	!	!	!	!LO:SIC:o=L:v:t='L' znajduje się przed kluczem i oznaczeniem metrum	!	!LO:SIC:o=L:v:t='L' znajduje się przed kluczem i oznaczeniem metrum	!	!	!
!LO:SIC:o=Laudate:v:t='Laudate' znajduje się przed kluczem i oznaczeniem metrum	!	!LO:SIC:o=Laudate pueri:v:t='Laudate pueri' znajduje się przed kluczem i oznaczeniem metrum	!LO:SIC:o=Laudate pueri:v:t='Laudate' znajduje się przed kluczem i oznaczeniem metrum; 'pueri' znajduje się pod pierwszym taktem	!	!	!	!	!	!
!	!	!	!	!	!	!	!	!LO:TX:b:Bi:t=Laudate pueri:dur=4qe:ext=s:problem:text with extention lines	!LO:TX:b:Bi:t=Laudate pueri:dur=6q:ext=s:problem:text with extention lines
!	!	!	!	!	!	!LO:TX:a:t=P:w źródle znak przykluczowy c# zapisany oktawę wyżej; f# w podstawowej oktawie:problem	!	!	!
!	!	!	!	!LO:N:vis=00	!	!LO:N:vis=00	!	!	!
8D\L	.	16dd\LL	16dd\LL	0.r	.	0.r	.	16f#/LL	16dd\LL
.	.	16ff#\J	16ff#\J	.	.	.	.	16dd/JJ	16ff#\J
8D\	.	8aa\	8aa\	.	.	.	.	8ff#\L	8aa\
8D\J	.	8ff#\J	8aa\J	.	.	.	.	8ff#\J	8aa\J
!	!	!	!	!	!	!	!	!LO:TX:a:t=P:mixed beam:problem	!
!LO:SIC:s=4G:v	!	!	!	!	!	!	!	!	!
4F#\	5	(>16b\LL	8gg\	.	.	.	.	8ee\L	8gg\
.	6	16cc#\JJ)	.	.	.	.	.	.	.
.	.	4dd\	4ff#\	.	.	.	.	8a/	4ff#\
8D\	.	.	.	.	.	.	.	8dd/J	.
=2	=2	=2	=2	=2	=2	=2	=2	=2	=2
!	!	!	!	!	!	!	!	!LO:TX:a:t=P:mixed beam:problem	!
8F#\L	6	(>16dd\LL	16ff#\LL	.	.	.	.	8dd\L	(>16ff#\LL
.	.	16ff#\JJ)	16aa\J	.	.	.	.	.	16aa\JJ)
!	!	!LO:TX:a:t=P:mixed beam:problem	!	!	!	!	!	!	!
8F#\	.	8f#/L	8dd\	.	.	.	.	8a/	8dd\L
8F#\J	.	8dd\J	8dd\J	.	.	.	.	8d/J	8dd\J
8A\L	.	8cc#\L	8ee\L	.	.	.	.	8a/L	8ee\L
8D\J	.	8dd\J	8dd\J	.	.	.	.	8f#/J	8dd\J
8r	.	8r	8r	.	.	.	.	8r	8r
=3	=3	=3	=3	=3	=3	=3	=3	=3	=3
8D\L	5	8ff#\L	16ddd\LL	.	.	.	.	2.r	2.r
.	.	.	16bb\J	.	.	.	.	.	.
8E\	#	8gg#X\	8gg#X\	.	.	.	.	.	.
8D\J	.	8gg#\J	8gg#\J	.	.	.	.	.	.
8C#/L	6	(>16aa\LL	16aa\LL	.	.	.	.	.	.
.	.	16ee\J)	16ee\J	.	.	.	.	.	.
!LO:SIC:s=8C#:v	!	!	!	!	!	!	!	!	!
8BB/	.	8cc#\	8cc#\	.	.	.	.	.	.
8AA/J	.	8cc#\J	8cc#\J	.	.	.	.	.	.
=4	=4	=4	=4	=4	=4	=4	=4	=4	=4
!LO:TX:a:t=P:mixed beam:problem	!	!	!	!	!	!	!	!	!
8D\L	8 6	8b/L	8dd\L	.	.	.	.	8ff#\L	8ff#\L
8E\	6 4	8a/	8cc#\	.	.	.	.	8ee\	8ee\
8EE/J	# x	8g#X/J	8b\J	.	.	.	.	8ee\J	8ee\J
4AA/	.	4a/	4a/	.	.	.	.	4a/	4a/
8r	.	8r	8r	.	.	.	.	8r	8r
=5	=5	=5	=5	=5	=5	=5	=5	=5	=5
8D\L	8 5	16dd\LL	16dd\LL	8D\	Lau-	8ff#\	Lau-	16f#/LL	(>16dd\LL
.	.	16ff#\J	16ff#\J	.	.	.	.	16dd/JJ	16ff#\J)
8D\	.	8aa\	8aa\	8D\	-da-	8ff#\	-da-	8ff#\L	8aa\
8D\J	.	8ff#\J	8aa\J	8D\	-te	8ff#\	-te	8ff#\J	8aa\J
!	!	!LO:LB:g=original	!	!	!	!	!	!	!
!LO:TX:a:t=P:mixed beam:problem	!	!	!	!	!	!	!	!	!
8.E\L	7 x	8.ee\L	8.ggn\L	8.E\	pu-	8.ee\	pu-	8.ee\L	8.gg\L
16AA/K	7 x	16ee\K	16gg\K	16AA/	-e-	16ee\	-e-	16ee\K	16ff#\K
8D/J	.	8dd\J	8ff#\J	8D\	-ri	8dd\	-ri	8dd\J	8ff#\J
=6	=6	=6	=6	=6	=6	=6	=6	=6	=6
8D\L	.	16dd\LL	16ff#\LL	8D\	lau-	8dd\	Do-	16dd\LL	(>16ff#\LL
.	.	16ff#\JJ	16aa\J	.	.	.	.	16ff#\JJ	16aa\JJ)
!	!	!	!	!	!	!	!	!LO:TX:a:t=P:mixed beam:problem	!
8F#\	6	8a\L	8dd\	8F#\	-da-	8dd\	-mi-	8f#/L	8dd\L
8F#\J	.	8dd\J	8dd\J	8F#\	-te	8dd\	-num	8dd\J	8dd\J
!LO:TX:a:t=P:mixed beam:problem	!	!	!	!	!	!	!	!	!
8A\L	.	8cc#\	8ee\	16A\	Do-	16cc#\	lau-	8a/L	8ee\L
.	.	.	.	16A\	-mi-	16cc#\	-da-	.	.
8D/J	.	4dd\	4dd\	8D\	-num	8dd\	-te	8f#/J	8dd\J
8r	.	.	.	8r	.	8r	.	8r	8r
!LO:LB:g=original	!	!	!	!	!	!	!	!	!
=7	=7	=7	=7	=7	=7	=7	=7	=7	=7
8F#\L	6_	8a/L	8dd\L	8F#\	lau-	8dd\	lau-	2.r	2.r
8G#X\	.	8b/	8dd\	8G#X\	-da-	8dd\	-da-	.	.
8A\J	.	8a/J	8cc#\J	8A\	-te	8cc#\	-te	.	.
!	!	!	!LO:LB:g=original	!	!	!	!	!	!
8D\L	6	8f#/L	4b/	(>8D\L	No-	4b\	no-	.	.
8E\	.	8g#X/	.	8E\J)	.	.	.	.	.
8F#\J	.	8a/J	8a/	8F#\	-men	8a\	-men	.	.
=8	=8	=8	=8	=8	=8	=8	=8	=8	=8
!LO:TX:a:t=P:mixed beam:problem	!	!	!	!	!	!	!	!	!
!	!	!	!	!LO:TX:a:t=P: nad 'Do-' niezruzumiała abrewiacja:problem	!	!	!	!	!
8D\L	6 5	8f#/L	8b/L	(>8D\L	Do-	(>8b\L	Do-	8dd\L	8ff#\L
8E\	.	8e/	8a/	8E\J)	.	8a\J)	.	8ee\	8ee\
8EE/J	4 x	8B/J	8g#X/J	8EE/	-mi-	8g#X\	-mi-	8ee\J	8ee\J
.	# x	.	.	.	.	.	.	.	.
8AA/L	.	(<16c#/LL	16a\LL	4AA/	-ni	4a\	-ni	4a/	4a/
.	.	16a/J)	16cc#\J	.	.	.	.	.	.
8AA/	.	8cc#/	8ee\	.	.	.	.	.	.
8AA/J	.	8cc#/J	8ee\J	8r	.	8r	.	8r	8r
!	!	!	!	!	!	!LO:LB:g=original	!	!	!
=9	=9	=9	=9	=9	=9	=9	=9	=9	=9
!	!	!	!	!LO:N:vis=0	!	!LO:N:vis=0	!	!LO:N:vis=00	!LO:N:vis=00
4.BB/	5	(<16f#/LL	8dd\	1.r	.	1.r	.	0.r	0.r
.	6\	16g#X/JJ)	.	.	.	.	.	.	.
.	.	4a/	4cc#\	.	.	.	.	.	.
8C#/L	6	8a/L	16cc#\LL	.	.	.	.	.	.
.	.	.	16ee\J	.	.	.	.	.	.
8C#/	.	8c#/	8a\	.	.	.	.	.	.
8C#/J	.	8a/J	8a\J	.	.	.	.	.	.
=10	=10	=10	=10	=10	=10	=10	=10	=10	=10
!LO:TX:a:t=P:mixed beam:problem	!	!	!	!	!	!	!	!	!
8E\L	.	8g#X/L	8b/L	.	.	.	.	.	.
8AA/J	.	8a/J	8a/J	.	.	.	.	.	.
8r	.	8r	8r	.	.	.	.	.	.
8A\L	6	8cc#\L	16aa\LL	.	.	.	.	.	.
.	#	.	16ff#\J	.	.	.	.	.	.
8B\	.	8b\	8dd#X\	.	.	.	.	.	.
8A\J	.	8b\J	8dd#\J	.	.	.	.	.	.
=11	=11	=11	=11	=11	=11	=11	=11	=11	=11
4G#X\	6 x	(>16ee\LL	16ee\LL	2.r	.	2.r	.	.	.
.	.	16b\JJ)	16b\JJ	.	.	.	.	.	.
.	.	8e/L	8e/L	.	.	.	.	.	.
8r	.	8e/J	8e/J	.	.	.	.	.	.
!LO:TX:a:t=P:mixed beam:problem	!	!	!	!	!	!	!	!	!
8Dn\L	8 6	8b/L	8ddn\L	.	.	.	.	.	.
8E\	6 4	8a/	8cc#\	.	.	.	.	.	.
8EE/J	5 #	8g#X/J	8b\J	.	.	.	.	.	.
!	!	!	!	!LO:LB:g=original	!	!	!	!	!
=12	=12	=12	=12	=12	=12	=12	=12	=12	=12
!LO:TX:a:t=P:mixed beam:problem	!	!	!	!	!	!	!	!	!
8AA/L	.	16a\LL	16a\LL	8A\	ſit	(>16a\LL	ſit	.	.
.	.	16cc#\J	16cc#\J	.	.	16cc#\JJ)	.	.	.
8A\	.	8ee\	8ee\	8A\	No-	8ee\	no-	.	.
8A\J	.	8cc#\J	8ee\J	8A\	-men	8ee\	-men	.	.
!	!	!LO:LB:g=original	!	!	!	!	!	!	!
8.B\L	6 x	8.f#/L	8.dd\L	8B\	Do-	8.dd\	Do-	.	.
.	.	.	.	8E\	-mi-	.	.	.	.
16E\K	7 #	16g#X/K	16dd\K	.	.	16dd\	-mi-	.	.
!LO:SIC:s=8A:v	!	!	!	!	!	!	!	!	!
8A#X\J	.	8e/J	8cc#\J	8A\	-ni	8cc#\	-ni	.	.
=13	=13	=13	=13	=13	=13	=13	=13	=13	=13
!	!	!	!LO:TX:a:t=P:mixed beam:problem	!	!	!	!	!	!
!	!	!	!	!	!	!	!	!LO:N:vis=00	!LO:N:vis=00
8AA/L	.	16cc#\LL	16cc#\LL	8AA/	be-	8cc#\	be-	0.r	0.r
.	.	16ee\J	16ee\J	.	.	.	.	.	.
!	!	!	!	!LO:TX:a:t=P:w źródle wartość rytmiczna poprawiana:problem	!	!	!	!	!
8C#/	6	8a\	8a/	4C#/	-ne-	4cc#\	-ne-	.	.
8C#/J	.	8cc#\J	8aa\J	.	.	.	.	.	.
!LO:TX:a:t=P:mixed beam:problem	!	!	!	!	!	!	!	!	!
8E\L	#	16gg#X\LL	8bb\	8E\	-dic-	8b\	-dic-	.	.
.	.	16ee\JJ	.	.	.	.	.	.	.
8AA/J	.	4cc#\	4aa\	8AA/	-tum	8a\	-tum	.	.
8r	.	.	.	8r	.	8r	.	.	.
!LO:LB:g=original	!	!	!	!	!	!	!	!	!
=14	=14	=14	=14	=14	=14	=14	=14	=14	=14
8F#\L	6	(<8a/L	8dd\L	8F#\	ex	8dd\	ex	.	.
8G#X\	.	8b/	8dd\	8G#X\	hoc	8dd\	hoc	.	.
8A\J	3	8a/J)	8cc#\J	8A\	nunc	16cc#\	nunc	.	.
.	.	.	.	.	.	16cc#\	et	.	.
8D\L	6	8f#/L	4b/	8D\	et	4b\	us-	.	.
8E\	#	8g#X/	.	8E\	us-	.	.	.	.
8F#\J	3	8a/J	8a/	8F#\	-que	8a\	-que	.	.
!	!	!	!LO:LB:g=original	!	!	!	!	!	!
=15	=15	=15	=15	=15	=15	=15	=15	=15	=15
!LO:TX:a:t=P:mixed beam:problem	!	!LO:TX:a:t=P:mixed beam:problem	!LO:TX:a:t=P:mixed beam:problem	!	!	!	!	!	!
8E\L	#	(>16e/LL	16e/LL	8E\	in	8g#X\	in	.	.
.	.	16gg#X\JJ)	16gg#X\JJ	.	.	.	.	.	.
8C#/	6	8aa\L	4aa\	8.C#/	ſae-	8.a\	ſae-	.	.
8AA/J	.	8cc#\J	.	.	.	.	.	.	.
.	.	.	.	16AA/	-cu-	16a\	-cu-	.	.
4E\	#	4.b\	16gg#X\LL	4E\	-lum	4b\	-lum	.	.
.	.	.	16ff#\JJ	.	.	.	.	.	.
.	.	.	4ee\	.	.	.	.	.	.
8r	.	.	.	8r	.	8r	.	.	.
=16	=16	=16	=16	=16	=16	=16	=16	=16	=16
!LO:TX:a:t=P:mixed beam:problem	!	!	!	!	!	!	!	!	!
8AA/L	.	(>16a\LL	16a\LL	8AA/	a	(>16a\LL	A	.	.
.	.	16cc#\J)	16cc#\J	.	.	16cc#\JJ)	.	.	.
!	!	!	!	!	!	!LO:LB:g=original	!	!	!
8A\	.	8ee\	8ee\	8A\	ſo-	8ee\	ſo-	.	.
8A\J	.	8cc#\J	8ee\J	8A\	-lis	8ee\	-lis	.	.
4B\	5	(<8f#/L	4dd\	4B\	or-	4dd\	Or-	.	.
.	6\	8g#X/	.	.	.	.	.	.	.
8A\	.	8e/J)	8cc#\	8A\	-tu	8cc#\	-tu	.	.
=17	=17	=17	=17	=17	=17	=17	=17	=17	=17
!	!	!LO:TX:a:t=P:mixed beam:problem	!LO:TX:a:t=P:mixed beam:problem	!	!	!	!	!	!
!	!	!	!	!	!	!	!	!LO:N:vis=0	!LO:N:vis=0
8AA/L	.	8e/L	(>16cc#\LL	8AA/	Us-	8cc#\	us-	1.r	1.r
.	.	.	16ee\J)	.	.	.	.	.	.
8C#/	6	8cc#\	8a/	8C#/	-q(ue)	8cc#\	-q(ue)	.	.
8C#/J	.	8aa\J	8aa\J	16C#/	ad	16cc#\	ad	.	.
!	!	!	!	!LO:LB:g=original	!	!	!	!	!
!	!	!	!	!LO:SIC:l:s=oc-:v	!	!	!	!	!
.	.	.	.	16C#/	o-	16cc#\	oc-	.	.
!LO:TX:a:t=P:mixed beam:problem	!	!	!	!	!	!	!	!	!
8E\L	.	(>16gg#X\LL	8bb\	8E\	-ca-	8b\	-ca-	.	.
.	.	16ee\JJ)	.	.	.	.	.	.	.
8AA/J	.	4cc#\	4aa\	8AA/	-ſum	8a\	-ſum	.	.
8r	.	.	.	8r	.	8r	.	.	.
=18	=18	=18	=18	=18	=18	=18	=18	=18	=18
8F#\L	6_	(<8a/L	8dd\L	8F#\	lau-	8dd\	lau-	.	.
8G#X\	.	8b/	8dd\	8G#X\	-da-	8dd\	-da-	.	.
8A\J	X	8a/J)	8cc#\J	16A\	-bi-	16cc#\	-bi-	.	.
.	.	.	.	16A\	-le	16cc#\	-le	.	.
8D\L	6	8f#/L	4b/	(>8D\L	No-	4b\	no-	.	.
8E\	.	8g#X/	.	8E\J)	.	.	.	.	.
8F#\J	3	8a/J	8a/	8F#\	-men	8a\	-men	.	.
!	!	!LO:LB:g=original	!	!	!	!	!	!	!
=19	=19	=19	=19	=19	=19	=19	=19	=19	=19
!LO:TX:a:t=P:mixed beam:problem	!	!	!	!	!	!	!	!	!
8D\L	6 5	8f#/L	8b/L	(>8D\L	Do-	(>8b\L	Do-	2.r	2.r
8E\	4 x	8e/	8a/	8E\J)	.	8a\J)	.	.	.
!LO:TX:a:t=P:w źródle zamazana cyfra '3' nad nutą 8EE:problem	!	!	!	!	!	!	!	!	!
8EE/J	.	8B/J	8g#X/J	8EE/	-mi-	8g#X\	-mi-	.	.
4.AA/	.	4c#/	4a/	4AA/	-ni	4a\	-ni	.	.
.	.	8r	8r	8r	.	8r	.	.	.
=20	=20	=20	=20	=20	=20	=20	=20	=20	=20
!	!	!	!	!LO:N:vis=00	!	!LO:N:vis=0	!	!	!
8D\L	.	16dd\LL	16dd\LL	0.r	.	1.r	.	16f#/LL	(>16dd\LL
.	.	16ff#\J	16ff#\J	.	.	.	.	16dd/JJ	16ff#\JJ)
8D\	.	8aa\	8aa\	.	.	.	.	8ff#\L	8aa\L
8D\J	.	8ff#\J	8aa\J	.	.	.	.	8ff#\J	8aa\J
!	!	!	!	!	!	!	!	!LO:TX:a:t=P:mixed beam:problem	!
8E\	5 6	16b\LL	8gg\	.	.	.	.	16ee\LL	8gg\
.	.	16cc#\JJ	.	.	.	.	.	16a/JJ	.
4D\	.	4dd\	4ff#\	.	.	.	.	4dd\	4ff#\
!	!	!	!	!	!	!	!	!LO:LB:g=original	!LO:LB:g=original
=21	=21	=21	=21	=21	=21	=21	=21	=21	=21
8F#\L	6	16dd\LL	(>16ff#\LL	.	.	.	.	16dd\LL	(>16ff#\LL
.	.	16ff#\J	16aa\J)	.	.	.	.	16ff#\JJ	16aa\JJ)
!	!	!	!	!	!	!	!	!LO:N:vis=16	!
8F#\	.	8a\	8dd\	.	.	.	.	8f#/L	8dd\L
8F#\J	.	8dd\J	8dd\J	.	.	.	.	8a/J	8dd\J
!LO:LB:g=original	!	!	!	!	!	!	!	!	!
8A\L	.	8cc#\L	8ee\L	.	.	.	.	8a/L	8ee\L
8F#\J	6	8dd\J	8dd\J	.	.	.	.	8d/J	8dd\J
8r	.	8r	8r	.	.	.	.	8r	8r
=22	=22	=22	=22	=22	=22	=22	=22	=22	=22
8D\L	6	8ff#\L	16ddd\LL	.	.	2.r	.	2.r	2.r
.	.	.	16bb\J	.	.	.	.	.	.
8E\	#	8ee\	8gg#X\	.	.	.	.	.	.
8D\J	.	8b\J	8gg#\J	.	.	.	.	.	.
!	!	!	!LO:LB:g=original	!	!	!	!	!	!
8C#/L	6	16ee\LL	16aa\LL	.	.	.	.	.	.
.	.	16aa\J	16ee\J	.	.	.	.	.	.
!LO:SIC:s=8C#:v	!	!	!	!	!	!	!	!	!
8BB/	.	8cc#\	8cc#\	.	.	.	.	.	.
8AA/J	.	8cc#\J	8cc#\J	.	.	.	.	.	.
!	!	!	!	!	!	!LO:TX:b:Bi:t=Verte	!	!	!
!	!	!	!	!	!	!LO:PB:g=original	!	!	!
=23	=23	=23	=23	=23	=23	=23	=23	=23	=23
!LO:TX:a:t=P:mixed beam:problem	!	!	!	!	!	!	!	!	!
!	!	!	!	!	!	!LO:N:vis=2	!	!	!
8D\L	8 6	8b/L	8dd\L	.	.	4.r	.	8ff#\L	8ff#\L
8E\	6 4	8a/	8cc#\	.	.	.	.	8ee\	8ee\
8EE/J	5 #	8g#X/J	8b\J	.	.	.	.	8ee\J	8ee\J
!LO:TX:a:t=P:mixed beam:problem	!	!	!	!	!	!	!	!	!
8AA/L	.	4a/	4a/	.	.	(>16a\LL	Ex-	4a/	4a/
.	.	.	.	.	.	16b\JJ)	.	.	.
8A\	.	.	.	.	.	(>16cc#\LL	-cel-	.	.
.	.	.	.	.	.	16a\JJ)	.	.	.
8Gn\J	.	8r	8r	.	.	(>16b\LL	-ſus	8r	8r
.	.	.	.	.	.	16cc#\JJ)	.	.	.
=24	=24	=24	=24	=24	=24	=24	=24	=24	=24
!	!	!	!	!LO:N:vis=00	!	!	!	!LO:N:vis=00	!LO:N:vis=00
8F#\L	6	2.r	2.r	0.r	.	(>16dd\LL	ſu-	0.r	0.r
.	.	.	.	.	.	16cc#\JJ)	.	.	.
8E\	.	.	.	.	.	4dd\	-per	.	.
8D\J	.	.	.	.	.	.	.	.	.
8G\L	.	.	.	.	.	16cc#\	om-	.	.
.	.	.	.	.	.	16dd\	-nes	.	.
8G\	6	.	.	.	.	8ee\	gen-	.	.
8G\J	.	.	.	.	.	8ee\	-tes	.	.
=25	=25	=25	=25	=25	=25	=25	=25	=25	=25
8G\L	6	8r	8r	.	.	16ee\	Do-	.	.
.	.	.	.	.	.	16ee\	-mi-	.	.
!	!	!LO:TX:a:t=P:mixed beam:problem	!LO:TX:a:t=P:mixed beam:problem	!	!	!	!	!	!
8F#\J	6	8dd\L	8dd\L	.	.	8dd\	-nus	.	.
8r	.	8d/J	8d/J	.	.	8r	.	.	.
8F#\L	-6r	8a/L	8dd\L	.	.	8dd\	et	.	.
8F#\	5	8a/	8ccn\	.	.	8ccn\	ſu-	.	.
8F#\J	.	8a/J	8a\J	.	.	8a\	-per	.	.
=26	=26	=26	=26	=26	=26	=26	=26	=26	=26
4G\	.	4d/	(>16b\LL	.	.	8b\	Cae-	.	.
.	.	.	16dd\JJ)	.	.	.	.	.	.
.	.	.	4g/	.	.	4g\	-los	.	.
8r	.	8r	.	.	.	.	.	.	.
!LO:TX:a:t=P:w źródle w cyfryzacji przy '5' kropka:problem	!	!	!	!	!	!	!	!	!
8G#X\L	6	8b\L	8ee\L	.	.	8.ee\	glo-	.	.
.	5	.	.	.	.	.	.	.	.
8G#\	.	8b\	8dd\	.	.	.	.	.	.
.	.	.	.	.	.	16dd\	-ri-	.	.
8G#\J	.	8b\J	8b\J	.	.	8cc#\	-a	.	.
!	!	!LO:LB:g=original	!	!	!	!	!	!	!
=27	=27	=27	=27	=27	=27	=27	=27	=27	=27
4A\	.	4e/	(>16cc#\LL	.	.	8cc#X\	e-	.	.
.	.	.	16ee\JJ)	.	.	.	.	.	.
.	.	.	4a/	.	.	4a\	-ius	.	.
8r	.	8r	.	.	.	.	.	.	.
!	!	!LO:TX:a:t=P:mixed beam:problem	!	!	!	!	!	!	!
8C#/L	6	8ee\L	8aa\L	.	.	8aa\	et	.	.
.	5	.	.	.	.	.	.	.	.
8C#/	.	8ee\	8gg\	.	.	8gg\	ſu-	.	.
8C#/J	.	8a/J	8ee\J	.	.	8ee\	-per	.	.
!	!	!	!	!	!	!LO:LB:g=original	!	!	!
=28	=28	=28	=28	=28	=28	=28	=28	=28	=28
!	!	!	!	!	!	!	!	!LO:N:vis=00	!LO:N:vis=00
8D\L	.	4a/	8ff#\	2.r	.	8ff#\	Cae-	0.r	0.r
8E\	.	.	4dd\	.	.	4dd\	-los	.	.
8F#\J	6 x	8a/	.	.	.	.	.	.	.
!LO:TX:a:t=P:mixed beam:problem	!	!	!	!	!	!	!	!	!
8G\L	6 5	(<8b/L	8.ee\L	.	.	8.ee\	glo-	.	.
!LO:TX:a:t=P:w źródle w cyfryzacji przy '3' kropka:problem	!	!	!	!	!	!	!	!	!
8A\	4 x	8a/)	.	.	.	.	.	.	.
.	3 x	.	16dd\K	.	.	16dd\	-ri-	.	.
8AA/J	.	8e/J	8cc#\J	.	.	8cc#\	-a	.	.
!LO:LB:g=original	!	!	!	!	!	!	!	!	!
=29	=29	=29	=29	=29	=29	=29	=29	=29	=29
8D\L	.	8f#/L	4dd\	4D\	Quis	8dd\	e-	.	.
8E\	.	8g/	.	.	.	8dd\	-ius	.	.
8F#\J	.	8a/J	8r	8r	.	8r	.	.	.
!	!	!	!	!	!	!LO:N:vis=2	!	!	!
4G\	.	4b/	8r	4G\	quis	4.r	.	.	.
!	!	!	!LO:TX:a:t=P:mixed beam:problem	!	!	!	!	!	!
.	.	.	8gg\L	.	.	.	.	.	.
8r	.	8r	8g\\/J	8r	.	.	.	.	.
=30	=30	=30	=30	=30	=30	=30	=30	=30	=30
!	!	!	!	!	!	!LO:N:vis=00	!	!	!
!	!	!	!	!LO:SIC:l:s=quis:v	!	!	!	!	!
8G\L	.	2.r	2.r	8d\	qui	0.r	.	.	.
8G\	.	.	.	8d\	ſi-	.	.	.	.
8cn\J	.	.	.	8e\	-cut	.	.	.	.
!	!	!	!	!LO:TX:b:Bi:t=Verte Cito	!	!	!	!	!
4G\	.	.	.	8.d\	Do-	.	.	.	.
.	.	.	.	16cn\	-mi-	.	.	.	.
8r	.	.	.	8B\	-nus	.	.	.	.
!	!	!	!	!LO:PB:g=original	!	!	!	!	!
=31	=31	=31	=31	=31	=31	=31	=31	=31	=31
!	!	!LO:N:vis=2	!LO:N:vis=2	!	!	!	!	!	!
8Cn/L	8 6	4.r	4.r	(>8cn\L	De-	.	.	.	.
8D/	6 4	.	.	8B\J)	.	.	.	.	.
8D/J	5 3	.	.	8A\	-us	.	.	.	.
4GG/	.	8r	8r	8B\	no-	.	.	.	.
.	.	8b\L	8gg\	8B\	-ſter	.	.	.	.
8r	.	16dd\L	16dd\LL	8r	.	.	.	.	.
.	.	16b\JJ	16b\JJ	.	.	.	.	.	.
!	!	!	!LO:LB:g=original	!	!	!	!	!	!
=32	=32	=32	=32	=32	=32	=32	=32	=32	=32
!	!	!	!	!	!	!	!	!LO:N:vis=00	!LO:N:vis=00
8r	.	8g/	8g/	8r	.	.	.	0.r	0.r
!	!	!	!	!LO:SIC:l:s=qui:v	!	!	!	!	!
8D\L	.	8r	8r	8A\	quis	.	.	.	.
8G\J	.	8r	8r	8B\	in	.	.	.	.
!	!	!LO:N:vis=2	!LO:N:vis=2	!	!	!	!	!	!
8E\L	6	4.r	4.r	4cn\	al-	.	.	.	.
8F#\	-	.	.	.	.	.	.	.	.
8G\J	.	.	.	8B\	-tis	.	.	.	.
=33	=33	=33	=33	=33	=33	=33	=33	=33	=33
!	!	!LO:N:vis=00	!LO:N:vis=00	!	!	!	!	!	!
8.D\L	6 4	0.r	0.r	8.B\	ha-	.	.	.	.
16D\K	5 3	.	.	16A\	-bi-	.	.	.	.
8D\J	.	.	.	8A\	-tat	.	.	.	.
8r	.	.	.	8r	.	.	.	.	.
8D\L	.	.	.	8A\	et	.	.	.	.
8D\J	.	.	.	8A\	hu-	.	.	.	.
=34	=34	=34	=34	=34	=34	=34	=34	=34	=34
!	!	!	!	!	!	!LO:N:vis=0	!	!	!
8.D\L	-6r 4_	.	.	8.B\	-mi-	1.r	.	.	.
16D\K	x X	.	.	16B\	-li-	.	.	.	.
8D\J	.	.	.	8B\	-a	.	.	.	.
8.C#X/L	-7_ 5_	.	.	8.B\	re-	.	.	.	.
16C#/K	.	.	.	16B\	-ſpi-	.	.	.	.
8C#/J	X X	.	.	16B\	-cit	.	.	.	.
.	.	.	.	16B\	in	.	.	.	.
!	!	!	!	!LO:TX:a:t=P:w źródle jedna nuta 16B skreślona przez skryptora:problem	!	!	!	!	!
=35	=35	=35	=35	=35	=35	=35	=35	=35	=35
!	!	!	!	!LO:SIC:l:s=Cae-:v	!	!	!	!	!
8D/L	.	.	.	8A\	Cael-	.	.	.	.
16D/L	.	.	.	8F#\	-lo	.	.	.	.
16Cn/J	6 x	.	.	.	.	.	.	.	.
8BB/J	.	.	.	8G\	et	.	.	.	.
8Cn/L	6 5	.	.	8E\	in	.	.	.	.
8D/	7 x	.	.	4F#\	ter-	.	.	.	.
8DD/J	# x	.	.	.	.	.	.	.	.
!LO:LB:g=original	!	!	!	!LO:LB:g=original	!	!	!	!	!
=36	=36	=36	=36	=36	=36	=36	=36	=36	=36
!	!	!	!	!	!	!	!	!LO:N:vis=00	!LO:N:vis=00
4GG/	.	.	.	4G\	-ra	8.dd\	ſus-	0.r	0.r
.	.	.	.	.	.	16b\	-ci-	.	.
8r	.	.	.	8r	.	8ccn\	-tans	.	.
16G\LL	.	.	.	(>16G\LL	Ut	8dd\	a	.	.
16A\J	.	.	.	16A\JJ)	.	.	.	.	.
8B\	6	.	.	8B\	col-	8b\	ter-	.	.
8G\J	.	.	.	16A\	-lo-	8dd\	-ra	.	.
.	.	.	.	16G\	-cet	.	.	.	.
=37	=37	=37	=37	=37	=37	=37	=37	=37	=37
!	!	!LO:N:vis=2	!LO:N:vis=2	!	!	!	!	!	!
8.A\L	6	4.r	4.r	8.A\	e-	8ccn\	a	.	.
.	.	.	.	.	.	(>16cc\LL	ter-	.	.
16G\L	.	.	.	16G\	-um	16b\JJ)	.	.	.
16F#\	.	.	.	16F#\	cum	(>16cc\LL	-ra	.	.
16E\JJ	.	.	.	16G\	prin-	16a\JJ)	.	.	.
4G\	.	8r	8r	16G\	-ci-	16b\	in-	.	.
!	!	!	!	!LO:TX:a:t=P:w źródle nuta 16G (przed 8G) dopisana przez skryptora:problem	!	!	!	!	!
.	.	.	.	16G\	-pi-	16b\	-o-	.	.
.	.	8gg\L	8gg\L	8G\	-bus	8b\	-pem	.	.
8r	.	16dd\L	16dd\L	8r	.	8r	.	.	.
.	.	16b\JJ	16b\JJ	.	.	.	.	.	.
=38	=38	=38	=38	=38	=38	=38	=38	=38	=38
8r	.	4g/	4g/	8r	.	8r	.	.	.
8G\L	.	.	.	8G\	Cum	8b\	et	.	.
8E\J	.	8r	8r	8E\	prin-	8b\	de	.	.
!	!	!LO:N:vis=2	!LO:N:vis=2	!	!	!	!	!	!
8.A\L	#_	4.r	4.r	8.A\	-ci-	8.cc#X\	ſter-	.	.
!	!	!	!	!	!	!LO:LB:g=original	!	!	!
16A\K	.	.	.	16A\	-pi-	16cc#\	-co-	.	.
8G\J	X	.	.	8G\	-bus	8cc#\	-re	.	.
=39	=39	=39	=39	=39	=39	=39	=39	=39	=39
8.F#\L	6 x	2.r	2.r	8.F#\	po-	8.dd\	e-	.	.
16E\K	.	.	.	16E\	-pu-	16dd\	-ri-	.	.
8D\J	.	.	.	8D\	-li	8dd\	-gens	.	.
!LO:TX:a:t=P:mixed beam:problem	!	!	!	!LO:TX:a:t=P:mixed beam:problem	!	!	!	!	!
8G\L	6 5	.	.	(>8G\L	ſu-	(>8b\L	pau-	.	.
8A\	4 x	.	.	8A\)	.	8cc#\J)	.	.	.
8AA/J	# x	.	.	8AA/J	.	8cc#\	-pe-	.	.
=40	=40	=40	=40	=40	=40	=40	=40	=40	=40
!	!	!	!	!LO:SIC:l:s=-i:v	!	!	!	!	!
8D\L	.	16dd\LL	16dd\LL	4D/	-j	4dd\	-rem	16f#/LL	(>16dd\LL
.	.	16ff#\J	16ff#\J	.	.	.	.	16dd/JJ	16ff#\J)
8D\	.	8aa\	8aa\	.	.	.	.	8ff#\L	8aa\
8D\J	.	8ff#\J	8aa\J	8r	.	8r	.	8ff#\J	8aa\J
!	!	!LO:LB:g=original	!	!	!	!	!	!	!
!	!	!	!	!LO:N:vis=2	!	!LO:N:vis=2	!	!LO:TX:a:t=P:mixed beam:problem	!
8E\	5	16b\LL	8gg\	4.r	.	4.r	.	16ee\LL	8gg\
.	6	16cc#\JJ	.	.	.	.	.	16a/JJ	.
4D\	.	4dd\	4ff#\	.	.	.	.	4dd\	4ff#\
=41	=41	=41	=41	=41	=41	=41	=41	=41	=41
!	!	!	!	!LO:N:vis=0	!	!LO:N:vis=0	!	!	!
8F#\L	.	16dd\LL	(>16ff#\LL	1.r	.	1.r	.	16dd\LL	(>16ff#\LL
.	.	16ff#\JJ	16aa\J)	.	.	.	.	16ff#\JJ	16aa\JJ)
8F#\	.	8a\L	8dd\	.	.	.	.	8f#/L	8dd\L
8F#\J	.	8dd\J	8dd\J	.	.	.	.	8a/J	8dd\J
!LO:TX:a:t=P:mixed beam:problem	!	!	!	!	!	!	!	!	!
8A\L	.	8cc#\L	8ee\L	.	.	.	.	8a/L	8ee\L
8D/J	.	8dd\J	8dd\J	.	.	.	.	8f#/J	8dd\J
8r	.	8r	8r	.	.	.	.	8r	8r
=42	=42	=42	=42	=42	=42	=42	=42	=42	=42
8D\L	6	8ff#\L	16ddd\LL	.	.	.	.	2.r	2.r
.	.	.	16bb\J	.	.	.	.	.	.
8E\	#_	8ee\	8gg#X\	.	.	.	.	.	.
8D\J	X	8b\J	8gg#\J	.	.	.	.	.	.
8C#/L	6	(>16cc#\LL	16aa\LL	.	.	.	.	.	.
.	.	16aa\JJ)	16ee\J	.	.	.	.	.	.
8BB/	.	8cc#\L	8cc#\	.	.	.	.	.	.
8AA/J	.	8cc#\J	8cc#\J	.	.	.	.	.	.
!LO:PB:g=original	!	!	!	!	!	!	!	!	!
=43	=43	=43	=43	=43	=43	=43	=43	=43	=43
!LO:TX:a:t=P:mixed beam:problem	!	!	!	!	!	!	!	!	!
8D\L	8 6	8b/L	8dd\L	2.r	.	2.r	.	8dd\L	8ff#\L
8E\	.	8a/	8cc#\	.	.	.	.	8ee\	8ee\
8EE/J	6 4	8g#X/J	8b\J	.	.	.	.	8ee\J	8ee\J
4AA/	5 #	8a/L	8a/L	.	.	.	.	4a/	4a/
.	.	16e/L	(<16e/L	.	.	.	.	.	.
.	.	16c#/J	16c#/J)	.	.	.	.	.	.
8r	.	8A/J	8A/J	.	.	.	.	8r	8r
!	!	!	!LO:PB:g=original	!	!	!	!	!	!
=44	=44	=44	=44	=44	=44	=44	=44	=44	=44
8D\L	.	16dd\LL	16dd\LL	8D\	Qui	8ff#\	Qui	16f#/LL	(>16dd\LL
.	.	16ff#\J	16ff#\J	.	.	.	.	16dd/JJ	16ff#\J)
!	!	!LO:N:vis=16	!	!	!	!	!	!	!
8D\	.	8aa\	8aa\	8D\	ha-	8ff#\	ha-	8ff#\L	8aa\
!	!	!	!	!LO:LB:g=original	!	!	!	!	!
8D\J	.	8ff#\J	8aa\J	8D\	-bi-	8ff#\	-bi-	8ff#\J	8aa\J
!	!	!	!	!	!	!	!	!LO:TX:a:t=P:mixed beam:problem	!
4E\	5	8b\L	8gg\	4E\	-ta-	4ee\	-ta-	8ee\L	8gg\
.	6	8cc#\	4ff#\	.	.	.	.	8a/	4ff#\
8D\	.	8a\J	.	8D\	-re	8dd\	-re	8dd/J	.
=45	=45	=45	=45	=45	=45	=45	=45	=45	=45
8F#\L	6	8a/L	16ff#\LL	16F#\	fa-	16dd\	fa-	16dd\LL	(>16ff#\LL
.	.	.	16aa\J	16F#\	-cit	16dd\	-cit	16ff#\JJ	16aa\JJ)
8F#\	.	8a/	8dd\	16F#\	ſte-	16dd\	ſte-	8f#/L	8dd\L
.	.	.	.	16F#\	-ri-	16dd\	-ri-	.	.
8F#\J	.	8a/J	8dd\J	16F#\	-lem	16dd\	-lem	8a/J	8dd\J
.	.	.	.	16F#\	in	16dd\	in	.	.
8A\L	.	8cc#\	8ee\	8A\	Do-	8cc#\	Do-	8a/L	8ee\L
8D\J	.	4dd\	4dd\	8D\	-mo	8dd\	-mo	8f#/J	8dd\J
8r	.	.	.	8r	.	8r	.	8r	8r
!	!	!	!	!	!	!	!	!LO:LB:g=original	!
=46	=46	=46	=46	=46	=46	=46	=46	=46	=46
8D\L	5_ #_	8a/L	8ff#\L	8D/	Mat-	8ff#\	Mat-	8d/L	8d/L
8D\	.	8a/	8ff#\	8D/	-rem	8ff#\	-rem	8d/	8d/
8D\J	.	8a/J	8ff#\J	16D/	fi-	16ff#\	Fi-	8d/J	8d/J
!	!	!	!	!	!	!LO:LB:g=original	!	!	!
.	.	.	.	16D/	-li-	16ff#\	-li-	.	.
8D\L	6_ 4_	16b/LL	16gg\LL	8D/	-o-	(>16gg\LL	-o-	8d/L	8d/L
.	.	16a/	16ff#\	.	.	16ff#\JJ)	.	.	.
8D\	.	16b/	16gg\	8D/	-rum	(>16gg\LL	-rum	8d/	8d/
.	.	16g/	16ee\	.	.	16ee\JJ)	.	.	.
8D\J	X X	16a/	16ff#\	8D/	le-	16ff#\LL	le-	8d/J	8d/J
.	.	16b/JJ	16gg\JJ	.	.	16gg\JJ	.	.	.
!	!	!LO:PB:g=original	!	!	!	!	!	!	!LO:LB:g=original
=47	=47	=47	=47	=47	=47	=47	=47	=47	=47
8D\L	5_ #_	16a/LL	16ff#\LL	4.D/	-tan-	16ff#\LL	-tan-	8d/L	8d/L
.	.	16g/	16ee\	.	.	16ee\	.	.	.
8D\	.	16a/	16ff#\	.	.	16ff#\	.	8d/	8d/
.	.	16f#/	16dd\	.	.	16dd\	.	.	.
8D\J	X X	16g/	16ee\	.	.	16ee\	.	8d/J	8d/J
.	.	16a/JJ	16ff#\JJ	.	.	16ff#\JJ	.	.	.
8E\L	-n x	16g/LL	16ee\LL	(<8E/L	.	16ee\LL	.	8a/L	8a/L
.	.	16f#/	16dd\	.	.	16dd\	.	.	.
8C#\	.	16g/	16ee\	8C#/	.	16ee\	.	8a/	8a/
.	.	16e/	16cc#\	.	.	16cc#\	.	.	.
8AA\J	.	16f#/	16dd\	8AA/J)	.	16dd\	.	8a/J	8a/J
.	.	16g/JJ	16ee\JJ	.	.	16ee\JJ	.	.	.
=48	=48	=48	=48	=48	=48	=48	=48	=48	=48
!	!	!LO:TX:a:t=P:mixed beam:problem	!	!	!	!	!	!LO:TX:a:t=P:mixed beam:problem	!LO:TX:a:t=P:mixed beam:problem
8D\L	.	8f#/L	8dd\L	8D\	-tem	8dd\	-tem	8d/L	8f#/L
8F#\	6	8dd\	8dd\	8F#\	le-	(>8dd\	le-	8dd\	8ff#\
8A\J	.	8cc#\J	8cc#\J	(>8A\	-tan-	8cc#\)	.	8a\J	8ee\J
!	!	!LO:TX:a:t=P:mixed beam:problem	!	!	!	!	!	!	!
8D\L	.	8dd\L	8dd\L	8D\)	.	8dd\	-tan-	8f#/L	8dd\L
8D\J	.	8f#/J	8dd\J	8D\	-tem	8dd\	-tem	8f#/J	8dd\J
8r	.	8r	8r	8r	.	8r	.	8r	8r
=49	=49	=49	=49	=49	=49	=49	=49	=49	=49
*clefC4	*	*	*	*	*	*	*	*	*
*k[f#c#]	*	*	*	*	*	*	*	*	*
!LO:TX:a:t=P:w źródle po kluczu powtórzone znaki przykluczowe (bez metrum):problem	!	!	!	!	!	!	!	!	!
!	!	!LO:N:vis=00	!LO:N:vis=00	!	!	!	!	!LO:N:vis=00	!LO:N:vis=00
8.A\L	.	0.r	0.r	8.A\	Glo-	8.cc#\	Glo-	0.r	0.r
!	!	!	!	!LO:LB:g=original	!	!	!	!	!
16B\L	.	.	.	16E\	-ri-	16cc#\	-ri-	.	.
16c#\	.	.	.	8A\	-a	8cc#\	-a	.	.
16d\JJ	.	.	.	.	.	.	.	.	.
8e\L	6 4	.	.	8A\	Pat-	8cc#\	Pat-	.	.
!LO:TX:a:t=P:w źródle koniec taktu słabo czytelny:problem	!	!	!	!	!	!	!	!	!
8e\J	5 #	.	.	4G#X\	-ri	4b\	-ri	.	.
8r	.	.	.	.	.	.	.	.	.
!LO:LB:g=original	!	!	!	!	!	!	!	!	!
=50	=50	=50	=50	=50	=50	=50	=50	=50	=50
8.A\L	5_ #_	.	.	8.A\	Glo-	8.cc#\	Glo-	.	.
16B\L	.	.	.	16E\	-ri-	16cc#\	-ri-	.	.
16c#\	X X	.	.	8A\	-a	8cc#\	-a	.	.
16d\JJ	.	.	.	.	.	.	.	.	.
8e\L	6 4	.	.	16A\	Fi-	16cc#\	Fi-	.	.
.	.	.	.	16A\	-li-	16b\	-li-	.	.
8e\J	5 #	.	.	4G#X\	-o	4b\	-o	.	.
8r	.	.	.	.	.	.	.	.	.
!	!	!	!	!	!	!LO:LB:g=original	!	!	!
=51	=51	=51	=51	=51	=51	=51	=51	=51	=51
4f#\	6 x	.	.	4A\	et	4dd\	et	.	.
8e\	6 #	.	.	8G#X\	ſpi-	8cc#\	ſpi-	.	.
4d\	6 x	.	.	4F#\	-ri-	4b\	-ri-	.	.
8c#\	6 x	.	.	8E\	-tu-	8a\	-tu-	.	.
=52	=52	=52	=52	=52	=52	=52	=52	=52	=52
!LO:TX:a:t=P:mixed beam:problem	!	!	!	!LO:SIC:l:s=-i:v	!	!	!	!	!
8d\L	6 5	.	.	(>16F#\LL	-j	8b\	-i	.	.
.	.	.	.	16A\JJ)	.	.	.	.	.
8e\	.	.	.	(>8A\L	ſan-	4b\	ſan-	.	.
8E/J	4 x	.	.	8G#X\J)	.	.	.	.	.
.	# x	.	.	.	.	.	.	.	.
4A\	.	.	.	4E\	-cto	4a\	-cto	.	.
8r	.	.	.	8r	.	8r	.	.	.
=53	=53	=53	=53	=53	=53	=53	=53	=53	=53
*clefF4	*	*	*	*	*	*	*	*	*
*k[f#c#]	*	*	*	*	*	*	*	*	*
!LO:TX:a:t=P:w źródle po kluczu powtórzone znaki przykluczowe (bez metrum):problem	!	!	!	!	!	!	!	!	!
4D\	.	16dd\LL	16dd\LL	4D\	ſi-	(>16dd\LL	ſi-	16f#/LL	(>16dd\LL
.	.	16ff#\J	16ff#\J	.	.	16ff#\JJ)	.	16dd/JJ	16ff#\J)
.	.	8aa\	8aa\	.	.	4aa\	-cut	8ff#\L	8aa\
8D\	.	8ff#\J	8aa\J	8D\	-cut	.	.	8ff#\J	8aa\J
!	!	!	!	!	!	!	!	!LO:TX:a:t=P:mixed beam:problem	!
4E\	5	8b\L	4gg\	4E\	e-	4gg\	e-	8ee\L	4gg\
.	6	8cc#\	.	.	.	.	.	8a/	.
8D\	.	8a\J	8ff#\	8D\	-rat	8ff#\	-rat	8dd/J	8ff#\
=54	=54	=54	=54	=54	=54	=54	=54	=54	=54
8F#\L	6	16dd\LL	16ff#\LL	4F#\	ni	8ff#\	in	16dd\LL	(>16ff#\LL
.	.	16ee\J	16aa\J	.	.	.	.	16ff#\JJ	16aa\JJ)
8F#\	.	8a\	8dd\	.	.	4dd\	prin-	8f#/L	8dd\L
8F#\J	.	8dd\J	8dd\J	8F#\	prin-	.	.	8d/J	8dd\J
8A\L	.	8cc#\	8ee\	8.A\	-ci-	8.ee\	-ci-	8.a/L	8.ee\L
8D\J	.	4dd\	4dd\	.	.	.	.	.	.
.	.	.	.	16D\	-pi-	16dd\	-pi-	16f#/K	16dd\K
8r	.	.	.	8D\	-o	8dd\	-o	8f#/J	8dd\J
!	!	!	!LO:LB:g=original	!LO:LB:g=original	!	!	!	!	!
=55	=55	=55	=55	=55	=55	=55	=55	=55	=55
!	!	!LO:TX:a:t=P:mixed beam:problem	!	!	!	!	!	!	!
8D\L	8 6	8ff#\L	16ddd\LL	8D\	et	8dd\	et	2.r	2.r
.	.	.	16bb\J	.	.	.	.	.	.
!	!	!LO:SIC:s=8gg#:v	!	!	!	!	!	!	!
8E\	# x	8aa#X\	8gg#X\	8E\	nunc	8b\	nunc	.	.
8D\J	.	8b/J	8gg#\J	8D\	et	8b\	et	.	.
8C#/L	6 x	16cc#\LL	16aa\LL	8C#/L	ſem-	8b\	ſem-	.	.
.	.	16ee\J	16ee\J	.	.	.	.	.	.
!	!	!LO:SIC:s=8aa:v	!	!	!	!	!	!	!
8BB/	.	8aa#\	8cc#\	8BB/J	.	4cc#\	-per	.	.
!	!	!LO:SIC:s=8aa:v	!	!	!	!	!	!	!
8AA/J	.	8aa#\J	8cc#\J	8AA/	-per	.	.	.	.
=56	=56	=56	=56	=56	=56	=56	=56	=56	=56
!LO:TX:a:t=P:mixed beam:problem	!	!	!	!	!	!	!	!	!
8D\L	8 6	8b/L	8dd\L	8D\L	nunc	(>8dd\L	nunc	8dd\L	8ff#\L
8E\	6 4	8a/	8cc#\	8E\J	.	8cc#\J)	.	8ee\	8ee\
8EE/J	5 #	8g#X/J	8b\J	8EE/	et	8b\	et	8ee\J	8ee\J
!	!	!LO:LB:g=original	!	!	!	!	!	!	!
4AA/	.	8a/L	8a/L	8AA/	ſem-	8a\	ſem-	4a/	4a/
.	.	16e/L	16e/L	8AA/	-per	8a\	-per	.	.
.	.	16c#/J	16c#/J	.	.	.	.	.	.
8r	.	8A/J	8A/J	8r	.	8r	.	8r	8r
!LO:LB:g=original	!	!	!	!	!	!	!	!	!
=57	=57	=57	=57	=57	=57	=57	=57	=57	=57
!	!	!	!	!	!	!	!	!LO:N:vis=0	!LO:N:vis=0
8D\L	8 6	8f#/L	8dd\	(>8D\L	et	8dd\	et	1.r	1.r
8E\	6 4	8g/	4ccn\	8E\J)	.	4ccn\	in	.	.
!	!	!	!	!LO:SIC:l:s=in:v	!	!	!	!	!
8F#\J	5 #	8a/J	.	8F#\	ni	.	.	.	.
!	!	!	!	!	!	!LO:LB:g=original	!	!	!
4G\	.	16d/LL	16b\LL	8.G\	ſae-	8.b\	ſae-	.	.
.	.	16b/	16gg\	.	.	.	.	.	.
.	.	16b/	16gg\	.	.	.	.	.	.
.	.	16b/	16gg\	16G\	-cu-	16b\	-cu-	.	.
8r	.	16b/	16gg\	8G\	-la	8b\	-la	.	.
.	.	16b/JJ	16gg\JJ	.	.	.	.	.	.
=58	=58	=58	=58	=58	=58	=58	=58	=58	=58
8E\L	#6	8g#X/L	8ee\	(>8E\L	ſae-	8ee\	ſae-	.	.
8F#\	.	8a/	4dd\	8F#\J)	.	4dd\	-cu-	.	.
8G#X\J	.	8b/J	.	8G#X\	-cu-	.	.	.	.
4A\	#	16e/LL	16cc#X\LL	4A\	-lo-	(>16cc#X\LL	-lo-	.	.
.	.	16cc#/	16aa\	.	.	16dd\JJ)	.	.	.
.	.	16cc#/	16aa\	.	.	4ee\	-rum	.	.
.	.	16cc#/	16aa\	.	.	.	.	.	.
8r	.	16cc#/	16aa\	8AA/	-rum	.	.	.	.
.	.	16cc#/JJ	16aa\JJ	.	.	.	.	.	.
=59	=59	=59	=59	=59	=59	=59	=59	=59	=59
!	!	!LO:TX:a:t=P:mixed beam:problem	!	!	!	!	!	!LO:SIC:s=8cc:v	!
8B\L	-6	(>8dd\L	4gg\	(>8B\L	A-	4gg\	A-	8ee\L	4gg\
!	!	!	!	!	!	!	!	!LO:SIC:s=8dd:v	!
8c#\	.	8ee\	.	8c#\J)	.	.	.	8ff#\	.
!	!	!	!	!	!	!	!	!LO:SIC:s=8cc:v	!
8d\J	.	8a/J)	8ff#\	8d\	-men	8ff#\	-men	8ee\J	8ff#\
*	*	*	*	*	*ij	*	*ij	*	*
!	!	!	!	!	!	!	!	!LO:TX:a:t=P:mixed beam:problem	!
8G\L	6	(>8b\L	4ee\	(>8G\L	A-	4ee\	A-	8ee\L	4ee\
8A\	.	8cc#\	.	8A\J)	.	.	.	8a/	.
8B\J	.	8dd\J)	8dd\	8B\	-men	8dd\	-men	8dd/J	8dd\
*	*	*	*	*	*Xij	*	*XIj	*	*
=60	=60	=60	=60	=60	=60	=60	=60	=60	=60
!	!	!LO:TX:a:t=P:mixed beam:problem	!	!	!	!	!	!	!
8B\L	6	(>8dd\L	4gg\	(>8B\L	A-	4gg\	A-	8dd\L	4gg\
8c#\	.	8ee\	.	8c#\J)	.	.	.	8ee\	.
!	!	!	!	!LO:LB:g=original	!	!	!	!	!
8d\J	.	8a/J)	8ff#\	8d\	-men	8ff#\	-men	8dd\J	8ff#\
*	*	*	*	*	*	*	*ij	*	*
!	!	!	!	!	!	!	!	!LO:TX:a:t=P:mixed beam:problem	!
8G\L	6	(8b\L	4ee\	(>8G\L	A-	4ee\	A-	8ee\L	4ee\
8A\	.	8cc#\	.	8A\J)	.	.	.	8a/	.
8B\J	.	8dd\J)	8dd\	8B\	-men	8dd\	-men	8dd/J	8dd\
*	*	*	*	*	*	*	*Xij	*	*
=61	=61	=61	=61	=61	=61	=61	=61	=61	=61
!LO:TX:a:t=P:mixed beam:problem	!	!	!	!LO:TX:a:t=P:mixed beam:problem	!	!	!	!	!
8G\L	6 5	8b/L	8ee\L	(>8G\L	A-	(>8ee\L	A-	8dd\	8ee\
8A\	.	8a/	8dd\	8A\	.	8dd\	.	4a/	4ee\
8AA/J	4 x	8e/J	8cc#\J	8AA/J)	.	8cc#\J)	.	.	.
.	# x	.	.	.	.	.	.	.	.
!	!	!	!	!	!	!	!	!LO:LB:g=original	!
!	!	!	!LO:TX:a:t=P:mixed beam:problem	!	!	!	!	!	!
4D/	.	8f#/L	8dd\L	4D\	-men	4dd\	-men	4f#/	4dd\
.	.	16a/L	16a/L	.	.	.	.	.	.
.	.	16f#/J	16f#/J	.	.	.	.	.	.
8r	.	8d/J	8d/J	8r	.	8r	.	8r	8r
=62	=62	=62	=62	=62	=62	=62	=62	=62	=62
!	!	!LO:TX:a:t=P:mixed beam:problem	!	!	!	!	!	!	!
!	!	!	!	!	!	!	!	!LO:N:vis=0	!LO:N:vis=0
8B\L	6	(>8dd\L	4gg\	8B\L	A-	4gg\	et	1.r	1.r
8c#\	.	8ee\	.	8c#\J	.	.	.	.	.
8d\J	.	8a/J)	8ff#\	8d\	-men	8ff#\	in	.	.
8G\L	6	(>8b\L	4ee\	8.G\	ſae-	8.ee\	ſae-	.	.
8A\	.	8cc#\	.	.	.	.	.	.	.
.	.	.	.	16A\	-cu-	16ee\	-cu-	.	.
8B\J	-	8dd\J)	8dd\	8B\	-la	8dd\	-la	.	.
!	!	!LO:LB:g=original	!LO:LB:g=original	!	!	!	!	!	!
=63	=63	=63	=63	=63	=63	=63	=63	=63	=63
!	!	!LO:TX:a:t=P:mixed beam:problem	!	!	!	!	!	!	!
8B\L	6	(>8dd\L	4gg\	(>8B\L	ſae-	4gg\	ſae-	.	.
8c#\	.	8ee\	.	8c#\J)	.	.	.	.	.
8d\J	.	8a/J)	8ff#\	8d\	-cu-	8ff#\	-cu-	.	.
8G\L	6	(>8b\L	4ee\	(>8G\L	-lo-	4ee\	-lo-	.	.
8A\	.	8cc#\	.	8A\J)	.	.	.	.	.
8B\J	.	8dd\J)	8dd\	8B\	-rum	8dd\	-rum	.	.
!LO:LB:g=original	!	!	!	!	!	!	!	!	!
=64	=64	=64	=64	=64	=64	=64	=64	=64	=64
!LO:TX:a:t=P:mixed beam:problem	!	!	!	!LO:TX:a:t=P:mixed beam:problem	!	!	!	!	!
!	!	!	!	!	!	!	!	!LO:N:vis=2	!LO:N:vis=2
8G\L	.	8b/L	8ee\L	(>8G\L	A-	8ee\L	A-	4.r	4.r
8A\	.	8a/	8dd\	8A\	.	8dd\	.	.	.
8AA/J	.	8e/J	8cc#\J	8AA/J)	.	8cc#\J	.	.	.
!	!	!	!	!	!	!LO:LB:g=original	!	!	!
8D\	.	8f#/	8dd\	8D\	-men	8dd\	-men	8r	8r
8r	.	8r	8r	8r	.	8r	.	8r	8r
8A\	.	8ee\	8ccc#\	8A\	A-	8ee\	A-	8a/	8ee\
=65	=65	=65	=65	=65	=65	=65	=65	=65	=65
4D\	.	4ff#\	8ddd\	4D/	-men	4ff#\	-men	4f#/	4dd\
.	.	.	8r	.	.	.	.	.	.
8r	.	8r	8r	8r	.	8r	.	8r	8r
!LO:N:vis=2	!	!LO:N:vis=2	!LO:N:vis=2	!LO:N:vis=2	!	!LO:N:vis=2	!	!LO:N:vis=2	!LO:N:vis=2
4.r	.	4.r	4.r	4.r	.	4.r	.	4.r	4.r
!LO:TX:a:t=P:w źródle ozdobna kreska końcowa:problem	!	!LO:TX:a:t=P:w źródle ozdobna kreska końcowa:problem	!LO:TX:a:t=P:w źródle ozdobna kreska końcowa:problem	!LO:TX:a:t=P:w źródle ozdobna kreska końcowa:problem	!	!LO:TX:a:t=P:w źródle ozdobna kreska końcowa:problem	!	!LO:TX:a:t=P:w źródle ozdobna kreska końcowa:problem	!LO:TX:a:t=P:w źródle ozdobna kreska końcowa:problem
==	==	==	==	==	==	==	==	==	==
*-	*-	*-	*-	*-	*-	*-	*-	*-	*-
!!title: @{OTL};
!!!RDF**kern: > = above
!!!RDF**kern: < = below
!!!ENC: Kamil Watkowski
!!!END: 2020-05-23
!!!EED: Wojciech Jakubiak-Danek
!!!EST: 2020-11-05
!!!URL-scan: http://bc.bdsandomierz.pl/dlibra/publication/1262/edition/1230/content
!!!ONB-nifc: UWAGA: części Vesperae: Domine ad adjuvandum, Dixit Dominus, Laudate pueri, Laetatus sum, Nisi Dominus, Lauda Jerusalem, Magnificat
